icons/sentry-logo.svg

<?xml version="1.0" encoding="UTF-8"?>
<svg width="512px" height="113px" viewBox="0 0 512 113" version="1.1" xmlns="http://www.w3.org/2000/svg" xmlns:xlink="http://www.w3.org/1999/xlink" preserveAspectRatio="xMidYMid">
    <g>
        <path d="M74.1259251,5.78668266 C71.9621658,2.19562839 68.0758125,0 63.8832566,0 C59.6907008,0 55.8043474,2.19562839 53.6405882,5.78668266 L36.7913987,34.6454009 C62.9838553,47.7221755 80.281803,73.7032056 82.2432398,102.912786 L70.4129577,102.912786 C68.4552594,77.8762472 53.3956941,55.7447256 30.8250443,44.7344293 L15.2305816,71.6982539 C27.9030793,77.3816803 36.8101521,89.1258922 38.865539,102.861573 L11.696861,102.861573 C11.0422945,102.815272 10.4551371,102.442218 10.1351434,101.869326 C9.81514966,101.296434 9.80541359,100.600856 10.1092474,100.019232 L17.6376087,87.2158966 C15.0870211,85.087844 12.1720037,83.4394711 9.03376724,82.3506291 L1.58222597,95.1539646 C0.015269831,97.8416867 -0.409011232,101.045334 0.404289295,104.04829 C1.21758982,107.051246 3.20060318,109.602917 5.90975337,111.132527 C7.6768614,112.128178 9.66859881,112.656958 11.696861,112.668928 L48.9033541,112.668928 C50.3088209,95.3258829 42.5379255,78.5116081 28.4180172,68.34378 L34.3331582,58.1011116 C52.1586448,70.3440884 62.1882688,91.0946989 60.7080294,112.668928 L92.2298415,112.668928 C93.723705,79.9794993 77.7179032,48.9627718 50.2092943,31.2397137 L62.1676097,10.7543768 C62.722237,9.82510528 63.92221,9.51654081 64.8563101,10.0629967 C66.2134637,10.8055902 116.812246,99.097392 117.759693,100.121659 C118.099444,100.730865 118.087164,101.475314 117.727505,102.072983 C117.367846,102.670652 116.71582,103.030122 116.018439,103.015213 L103.829663,103.015213 C103.983303,106.275795 103.983303,109.527843 103.829663,112.771606 L116.069652,112.771606 C119.209049,112.791904 122.226188,111.555626 124.448528,109.338096 C126.670869,107.120566 127.913681,104.106113 127.900047,100.966679 C127.901458,98.9137334 127.353272,96.8978232 126.312321,95.128358 L74.1259251,5.78668266 Z M318.208713,72.4152407 L280.413267,23.6089257 L270.990012,23.6089257 L270.990012,89.0339702 L280.5413,89.0339702 L280.5413,38.8961083 L319.412227,89.0339702 L327.760002,89.0339702 L327.760002,23.6089257 L318.208713,23.6089257 L318.208713,72.4152407 Z M223.028717,60.2776787 L256.906343,60.2776787 L256.906343,51.7762639 L223.003111,51.7762639 L223.003111,32.0847338 L261.23387,32.0847338 L261.23387,23.583319 L213.272576,23.583319 L213.272576,89.0339702 L261.720397,89.0339702 L261.720397,80.5325555 L223.003111,80.5325555 L223.028717,60.2776787 Z M183.184737,51.9811172 L183.184737,51.9811172 C169.997301,48.80589 166.309941,46.2964363 166.309941,40.2020486 C166.309941,34.722221 171.149602,31.0092536 178.370683,31.0092536 C184.946798,31.2018527 191.289553,33.4895507 196.474599,37.5389548 L201.595934,30.2922669 C195.031825,25.1465683 186.888636,22.4321719 178.54993,22.6102655 C165.592954,22.6102655 156.553799,30.2922669 156.553799,41.2263154 C156.553799,53.0053841 164.2358,57.0768448 178.217043,60.482532 C190.661885,63.3504792 194.477279,66.013573 194.477279,71.9799273 C194.477279,77.9462817 189.355945,81.6336423 181.443483,81.6336423 C173.566098,81.597557 165.98625,78.620412 160.189946,73.2858676 L154.428445,80.1740621 C161.852671,86.553309 171.322158,90.052112 181.110597,90.0327113 C195.143052,90.0327113 204.156601,82.4786625 204.156601,70.8020205 C204.079781,60.9178454 198.24146,55.6172645 183.184737,51.9811172 Z M500.989131,23.6089257 L481.297601,54.336931 L461.734105,23.6089257 L450.313529,23.6089257 L476.150661,63.1712325 L476.150661,89.0595769 L485.983622,89.0595769 L485.983622,62.8639524 L512,23.6089257 L500.989131,23.6089257 Z M335.493216,32.4688339 L356.926,32.4688339 L356.926,89.0595769 L366.758962,89.0595769 L366.758962,32.4688339 L388.191745,32.4688339 L388.191745,23.6089257 L335.518823,23.6089257 L335.493216,32.4688339 Z M433.669193,63.5041192 C443.553368,60.7642054 449.033196,53.8504042 449.033196,43.9662292 C449.033196,31.3933537 439.840401,23.4808924 425.014138,23.4808924 L395.92496,23.4808924 L395.92496,89.0083636 L405.655495,89.0083636 L405.655495,65.5014396 L422.171798,65.5014396 L438.764921,89.0595769 L450.134283,89.0595769 L432.209613,63.9138259 L433.669193,63.5041192 Z M405.629888,57.1024514 L405.629888,32.2639805 L423.989872,32.2639805 C433.566767,32.2639805 439.046594,36.7963613 439.046594,44.6576093 C439.046594,52.5188573 433.182667,57.1024514 424.092298,57.1024514 L405.629888,57.1024514 Z" fill="#362D59"></path>
    </g>
</svg>

<svg xmlns="http://www.w3.org/2000/svg" viewBox="0 0 512 112.772">
  <path fill="#362d59" d="M74.126 5.787a11.958 11.958 0 0 0-20.485 0L36.79 34.645a82.48 82.48 0 0 1 45.452 68.268h-11.83a70.88 70.88 0 0 0-39.588-58.179L15.231 71.698a40.766 40.766 0 0 1 23.635 31.164h-27.17a1.946 1.946 0 0 1-1.587-2.843l7.529-12.803a27.502 27.502 0 0 0-8.604-4.865L1.582 95.154a11.625 11.625 0 0 0 4.328 15.979 11.933 11.933 0 0 0 5.787 1.536h37.206a49.677 49.677 0 0 0-20.485-44.325L34.333 58.1a61.123 61.123 0 0 1 26.375 54.568H92.23a91.877 91.877 0 0 0-42.02-81.43l11.958-20.485a1.972 1.972 0 0 1 2.688-.691c1.357.743 51.956 89.034 52.904 90.059a1.946 1.946 0 0 1-1.742 2.893H103.83c.153 3.26.153 6.513 0 9.757h12.24a11.755 11.755 0 0 0 11.83-11.805 11.503 11.503 0 0 0-1.588-5.839zm244.083 66.628L280.413 23.61h-9.423v65.425h9.551V38.896l38.871 50.138h8.348V23.609h-9.551zm-95.18-12.137h33.877v-8.502h-33.903V32.085h38.23v-8.502h-47.96v65.451h48.447v-8.501h-38.717zm-39.844-8.297c-13.188-3.175-16.875-5.685-16.875-11.779 0-5.48 4.84-9.193 12.06-9.193a30.882 30.882 0 0 1 18.105 6.53l5.12-7.247a36.105 36.105 0 0 0-23.045-7.682c-12.957 0-21.996 7.682-21.996 18.616 0 11.78 7.682 15.85 21.663 19.257 12.445 2.867 16.26 5.53 16.26 11.497 0 5.966-5.121 9.654-13.034 9.654a31.599 31.599 0 0 1-21.253-8.348l-5.762 6.888a40.818 40.818 0 0 0 26.683 9.859c14.032 0 23.046-7.554 23.046-19.231-.077-9.884-5.916-15.185-20.972-18.82zM500.989 23.61l-19.691 30.728-19.564-30.728h-11.42L476.15 63.17V89.06h9.833V62.864L512 23.609zm-165.496 8.86h21.433v56.59h9.833V32.47h21.433v-8.86h-52.673zm98.176 31.035c9.884-2.74 15.364-9.654 15.364-19.538 0-12.573-9.193-20.485-24.019-20.485h-29.089v65.527h9.73V65.501h16.517l16.593 23.559h11.37L432.21 63.914zm-28.04-6.402V32.264h18.36c9.578 0 15.058 4.532 15.058 12.394 0 7.86-5.864 12.444-14.955 12.444z"/>
</svg>
